prod/images/flags-4x3/gb.svg

<svg viewBox="0 0 640 480" xmlns="http://www.w3.org/2000/svg"><path d="m0 0h640v480h-640z" fill="#012169"/><path d="m75 0 244 181 243-181h78v62l-240 179 240 178v61h-80l-240-179-239 179h-81v-60l239-178-239-178v-64z" fill="#fff"/><path d="m424 281 216 159v40l-271-199zm-184 20 6 35-192 144h-54zm400-301v3l-249 188 2-44 197-147zm-640 0 239 176h-60l-179-134z" fill="#c8102e"/><path d="m241 0v480h160v-480zm-241 160v160h640v-160z" fill="#fff"/><path d="m0 193v96h640v-96zm273-193v480h96v-480z" fill="#c8102e"/></svg>

<svg viewBox="0 0 640 480" xmlns="http://www.w3.org/2000/svg"><path d="M0 0h640v480H0z" fill="#012169"/><path d="M75 0l244 181L562 0h78v62L400 241l240 178v61h-80L320 301 81 480H0v-60l239-178L0 64V0z" fill="#fff"/><path d="M424 281l216 159v40L369 281zm-184 20l6 35L54 480H0zM640 0v3L391 191l2-44L590 0zM0 0l239 176h-60L0 42z" fill="#c8102e"/><path d="M241 0v480h160V0zM0 160v160h640V160z" fill="#fff"/><path d="M0 193v96h640v-96zM273 0v480h96V0z" fill="#c8102e"/></svg>
